src/topics/icons/lotus.svg

<svg height="296" preserveAspectRatio="xMidYMid" viewBox="0 0 256 296" width="256" xmlns="http://www.w3.org/2000/svg"><path d="m127.997275 107.43728s40.318951-24.0529593 40.318951-53.7186398c0-29.6656804-40.318951-53.7186402-40.318951-53.7186402s-40.3189506 24.0529598-40.3189506 53.7186402c0 29.6656805 40.3189506 53.7186398 40.3189506 53.7186398zm0 188.020691s40.318951-24.05296 40.318951-53.718641c0-29.671129-40.318951-53.71864-40.318951-53.71864s-40.3189506 24.05296-40.3189506 53.71864c0 29.665681 40.3189506 53.718641 40.3189506 53.718641zm-34.951446-167.874838s-.6702569-46.945231-26.363439-61.7780712-66.68239 8.0539816-66.68239 8.0539816.67025692 46.9452306 26.363439 61.7780706c25.693182 14.83829 66.68239-8.053981 66.68239-8.053981zm162.954171 94.010345s-.670257-46.945231-26.363439-61.778071-66.68239 8.059431-66.68239 8.059431.670257 46.945231 26.363439 61.778071 66.68239-8.059431 66.68239-8.059431zm-162.954171-53.72409s-40.989208-22.892271-66.68239-8.05943c-25.69318208 14.83284-26.363439 61.78352-26.363439 61.78352s40.9892079 22.892271 66.68239 8.059431 26.363439-61.783521 26.363439-61.783521zm162.954171-94.0103446s-40.989208-22.892271-66.68239-8.0594308-26.363439 61.7780714-26.363439 61.7780714 40.989208 22.892271 66.68239 8.05943c25.693182-14.83284 26.363439-61.7780706 26.363439-61.7780706z" fill="#502b4d"/></svg>

<?xml version="1.0" encoding="UTF-8" standalone="no"?>
<svg width="256px" height="296px" viewBox="0 0 256 296" version="1.1" xmlns="http://www.w3.org/2000/svg" xmlns:xlink="http://www.w3.org/1999/xlink" preserveAspectRatio="xMidYMid">
    <g>
        <path d="M127.997275,107.43728 C127.997275,107.43728 168.316226,83.3843207 168.316226,53.7186402 C168.316226,24.0529598 127.997275,0 127.997275,0 C127.997275,0 87.6783244,24.0529598 87.6783244,53.7186402 C87.6783244,83.3843207 127.997275,107.43728 127.997275,107.43728 L127.997275,107.43728 Z M127.997275,295.457971 C127.997275,295.457971 168.316226,271.405011 168.316226,241.73933 C168.316226,212.068201 127.997275,188.02069 127.997275,188.02069 C127.997275,188.02069 87.6783244,212.07365 87.6783244,241.73933 C87.6783244,271.405011 127.997275,295.457971 127.997275,295.457971 L127.997275,295.457971 Z M93.045829,127.583133 C93.045829,127.583133 92.3755721,80.637902 66.68239,65.8050618 C40.9892079,50.9722216 0,73.8590434 0,73.8590434 C0,73.8590434 0.670256923,120.804274 26.363439,135.637114 C52.056621,150.475404 93.045829,127.583133 93.045829,127.583133 L93.045829,127.583133 Z M256,221.593478 C256,221.593478 255.329743,174.648247 229.636561,159.815407 C203.943379,144.982567 162.954171,167.874838 162.954171,167.874838 C162.954171,167.874838 163.624428,214.820069 189.31761,229.652909 C215.010792,244.485749 256,221.593478 256,221.593478 L256,221.593478 Z M93.045829,167.869388 C93.045829,167.869388 52.056621,144.977117 26.363439,159.809958 C0.670256923,174.642798 0,221.593478 0,221.593478 C0,221.593478 40.9892079,244.485749 66.68239,229.652909 C92.3755721,214.820069 93.045829,167.869388 93.045829,167.869388 L93.045829,167.869388 Z M256,73.8590434 C256,73.8590434 215.010792,50.9667724 189.31761,65.7996126 C163.624428,80.6324528 162.954171,127.577684 162.954171,127.577684 C162.954171,127.577684 203.943379,150.469955 229.636561,135.637114 C255.329743,120.804274 256,73.8590434 256,73.8590434 L256,73.8590434 Z" fill="#502B4D"></path>
    </g>
</svg>
